src/assets/icons/threejs.svg

<svg xmlns="http://www.w3.org/2000/svg"
    xmlns:xlink="http://www.w3.org/1999/xlink" version="1.1" width="1080" height="1080" viewBox="0 0 1080 1080" xml:space="preserve">
    <desc>Created with Fabric.js 5.2.4</desc>
    <defs>
    </defs>
    <g transform="matrix(1 0 0 1 540 540)" id="854dbe5d-08f0-4672-9e66-4479a1bad896">
        <rect style="stroke: none; stroke-width: 1; stroke-dasharray: none; stroke-linecap: butt; stroke-dashoffset: 0; stroke-linejoin: miter; stroke-miterlimit: 4; fill: rgb(255,255,255); fill-rule: nonzero; opacity: 1; visibility: hidden;" vector-effect="non-scaling-stroke" x="-540" y="-540" rx="0" ry="0" width="1080" height="1080" />
    </g>
    <g transform="matrix(1 0 0 1 540 540)" id="6f85fb55-fb23-4f23-8bfd-11d980d33bab">
    </g>
    <g transform="matrix(8.44 0 0 8.44 540 540)">
        <g style="">
            <g transform="matrix(1 0 0 1 1.13 2.26)">
                <path style="stroke: none; stroke-width: 1; stroke-dasharray: none; stroke-linecap: butt; stroke-dashoffset: 0; stroke-linejoin: miter; stroke-miterlimit: 4; fill: rgb(255,255,255); fill-rule: nonzero; opacity: 1;" vector-effect="non-scaling-stroke" transform=" translate(-65.13, -66.26)" d="M 16.219 15.762 C 15.875597774013745 15.76814358676379 15.55366566141889 15.930270882225985 15.344274934200369 16.202517747819584 C 15.134884206981846 16.474764613413182 15.06080737151323 16.827522558044663 15.143 17.161 L 39.537 115.903 C 39.63340090008835 116.29491338679598 39.931676721522166 116.60555925607441 40.31935167660895 116.71779724200694 C 40.70702663169574 116.83003522793946 41.125129754962884 116.72679231018701 41.416 116.447 L 114.80199999999999 45.857 C 115.09304083238847 45.577315993712105 115.21262515004622 45.163530890321894 115.11564996016118 44.771709857148096 C 115.01867477027615 44.379888823974305 114.71989505507949 44.06964826794669 114.332 43.958 L 16.55 15.806 C 16.442457441433344 15.775008190047082 16.33090433200934 15.760179377918211 16.219 15.761999999999999 z M 17.803 18.516000000000002 L 111.827 45.586 L 41.260999999999996 113.463 L 17.802999999999997 18.51599999999999 z" stroke-linecap="round" />
            </g>
            <g transform="matrix(1 0 0 1 -11.13 -8.34)">
                <path style="stroke: none; stroke-width: 1; stroke-dasharray: none; stroke-linecap: butt; stroke-dashoffset: 0; stroke-linejoin: miter; stroke-miterlimit: 4; fill: rgb(255,255,255); fill-rule: nonzero; opacity: 1;" vector-effect="non-scaling-stroke" transform=" translate(-52.87, -55.66)" d="M 65.137 29.84 C 64.83681530653871 29.833512785944936 64.54641121574569 29.94686754257418 64.33 30.155 L 27.654 65.46 C 27.363501559287794 65.73987123689307 27.24439352151714 66.15346987479953 27.341548454309645 66.54497743836677 C 27.43870338710215 66.93648500193403 27.737358898917226 67.24641312779893 28.125 67.35799999999999 L 76.984 81.44 C 77.37133209517742 81.55168996611071 77.78882924785268 81.44838739123146 78.07938724776054 81.16896504213624 C 78.36994524766841 80.88954269304102 78.4894759719582 80.47639901292551 78.393 80.085 L 66.21 30.698 C 66.08753157213896 30.20224982966388 65.64754680970333 29.850426040130078 65.137 29.84 z M 64.486 33.14 L 75.734 78.73 L 30.629999999999995 65.73 L 64.486 33.14 z" stroke-linecap="round" />
            </g>
            <g transform="matrix(1 0 0 1 -4.93 -3.29)">
                <path style="stroke: none; stroke-width: 1; stroke-dasharray: none; stroke-linecap: butt; stroke-dashoffset: 0; stroke-linejoin: miter; stroke-miterlimit: 4; fill: rgb(255,255,255); fill-rule: nonzero; opacity: 1;" vector-effect="non-scaling-stroke" transform=" translate(-59.07, -60.71)" d="M 46.914 47.313 C 46.57059777401374 47.31914358676379 46.24866566141889 47.481270882225985 46.03927493420037 47.753517747819586 C 45.829884206981845 48.02576461341319 45.75580737151323 48.378522558044665 45.838 48.712 L 51.892 73.243 C 51.988469938150516 73.63514806037281 52.28705015272055 73.94590555372959 52.67503084939376 74.05796593580062 C 53.06301154606696 74.17002631787167 53.48130066535047 74.06632204168642 53.772000000000006 73.786 L 71.994 56.223 C 72.28448136137773 55.94298687108129 72.40345670289685 55.52924316909009 72.30608670419703 55.13770025058957 C 72.20871670549722 54.74615733208905 71.90980303132307 54.436335450649594 71.522 54.324999999999996 L 47.245000000000005 47.357 C 47.13745744143335 47.326008190047084 47.02590433200934 47.311179377918215 46.914 47.313 z M 48.497 50.064 L 69.019 55.954 L 53.614 70.8 L 48.497 50.06399999999999 z" stroke-linecap="round" />
            </g>
            <g transform="matrix(1 0 0 1 -4.93 -3.27)">
                <path style="stroke: none; stroke-width: 1; stroke-dasharray: none; stroke-linecap: butt; stroke-dashoffset: 0; stroke-linejoin: miter; stroke-miterlimit: 4; fill: rgb(255,255,255); fill-rule: nonzero; opacity: 1;" vector-effect="non-scaling-stroke" transform=" translate(-59.07, -60.73)" d="M 40.902 22.809 C 40.601672951437926 22.8027801981524 40.31124937135323 22.916502442646532 40.095 23.125 L 21.873 40.687 C 21.58251863862227 40.96701312891871 21.463543297103154 41.38075683090991 21.56091329580297 41.77229974941043 C 21.65828329450278 42.16384266791095 21.95719696867694 42.4736645493504 22.345000000000002 42.585 L 46.618 49.554 C 47.00540615560894 49.66539780292276 47.422816043687355 49.56179104076843 47.71316488587631 49.282165309228496 C 48.003513728065265 49.002539577688566 48.1227473445347 48.58932205563346 48.026 48.198 L 41.975 23.668 C 41.853301391369946 23.17145729294752 41.413127707523884 22.818661982502395 40.902 22.808 z M 40.252 26.109 L 45.366 46.845 L 24.849 40.955 L 40.252 26.107999999999997 z M 89.453 36.793 C 89.1530170378201 36.787047718682636 88.86300309071004 36.90075045725184 88.647 37.109 L 70.423 54.67 C 70.13199306433471 54.94996786658444 70.01267406195963 55.364043364555606 70.11007951351272 55.75593521307109 C 70.2074849650658 56.147827061586575 70.5067812190208 56.45785495503547 70.895 56.569 L 95.169 63.537000000000006 C 95.55640615560893 63.648397802922766 95.97381604368735 63.54479104076844 96.2641648858763 63.2651653092285 C 96.55451372806526 62.98553957768857 96.6737473445347 62.572322055633464 96.577 62.181000000000004 L 90.527 37.651 C 90.40481962643102 37.1545004968403 89.96421214747797 36.802096563487716 89.453 36.792 z M 88.803 40.092999999999996 L 93.917 60.83 L 73.4 54.94 L 88.80300000000001 40.093999999999994 z M 52.944 71.864 C 52.667029251385436 71.87460381895988 52.40363708856206 71.9867234558374 52.204 72.179 L 33.982 89.742 C 33.69151863862227 90.02201312891872 33.57254329710316 90.43575683090992 33.66991329580297 90.82729974941043 C 33.76728329450278 91.21884266791095 34.06619696867694 91.52866454935041 34.454 91.64 L 58.732 98.608 C 59.1190590202523 98.718780165886 59.53582273669139 98.61506331362762 59.8258123646347 98.3357911417277 C 60.115801992578014 98.05651896982778 60.23513255335587 97.64395455298242 60.138999999999996 97.253 L 54.083999999999996 72.72200000000001 C 53.955775599729215 72.20169711448756 53.47946656682495 71.84321189498593 52.943999999999996 71.864 z M 52.362 75.164 L 57.480000000000004 95.901 L 36.958000000000006 90.011 L 52.36200000000001 75.16499999999999 z" stroke-linecap="round" />
            </g>
        </g>
    </g>
</svg>

<svg xmlns="http://www.w3.org/2000/svg" viewBox="0 0 128 128"><g color="#000" font-weight="400" font-family="sans-serif"><path style="line-height:normal;font-variant-ligatures:normal;font-variant-position:normal;font-variant-caps:normal;font-variant-numeric:normal;font-variant-alternates:normal;font-variant-east-asian:normal;font-feature-settings:normal;font-variation-settings:normal;text-indent:0;text-align:start;text-decoration-line:none;text-decoration-style:solid;text-decoration-color:#000;text-transform:none;text-orientation:mixed;white-space:normal;shape-padding:0;shape-margin:0;inline-size:0;isolation:auto;mix-blend-mode:normal;solid-color:#000;solid-opacity:1" d="M16.219 15.762a1.129 1.129 0 00-1.076 1.399l24.394 98.742a1.129 1.129 0 001.879.544l73.386-70.59a1.129 1.129 0 00-.47-1.899L16.55 15.806a1.129 1.129 0 00-.331-.044zm1.584 2.754l94.024 27.07-70.566 67.877-23.458-94.947z" overflow="visible"/><path style="line-height:normal;font-variant-ligatures:normal;font-variant-position:normal;font-variant-caps:normal;font-variant-numeric:normal;font-variant-alternates:normal;font-variant-east-asian:normal;font-feature-settings:normal;font-variation-settings:normal;text-indent:0;text-align:start;text-decoration-line:none;text-decoration-style:solid;text-decoration-color:#000;text-transform:none;text-orientation:mixed;white-space:normal;shape-padding:0;shape-margin:0;inline-size:0;isolation:auto;mix-blend-mode:normal;solid-color:#000;solid-opacity:1" d="M65.137 29.84a1.129 1.129 0 00-.807.315L27.654 65.46a1.129 1.129 0 00.471 1.898L76.984 81.44a1.129 1.129 0 001.409-1.355L66.21 30.698a1.129 1.129 0 00-1.073-.858zm-.651 3.3L75.734 78.73l-45.104-13L64.486 33.14z" overflow="visible"/><path style="line-height:normal;font-variant-ligatures:normal;font-variant-position:normal;font-variant-caps:normal;font-variant-numeric:normal;font-variant-alternates:normal;font-variant-east-asian:normal;font-feature-settings:normal;font-variation-settings:normal;text-indent:0;text-align:start;text-decoration-line:none;text-decoration-style:solid;text-decoration-color:#000;text-transform:none;text-orientation:mixed;white-space:normal;shape-padding:0;shape-margin:0;inline-size:0;isolation:auto;mix-blend-mode:normal;solid-color:#000;solid-opacity:1" d="M46.914 47.313a1.129 1.129 0 00-1.076 1.399l6.054 24.531a1.129 1.129 0 001.88.543l18.222-17.563a1.129 1.129 0 00-.472-1.898l-24.277-6.968a1.129 1.129 0 00-.331-.044zm1.583 2.751l20.522 5.89L53.614 70.8l-5.117-20.736z" overflow="visible"/><path style="line-height:normal;font-variant-ligatures:normal;font-variant-position:normal;font-variant-caps:normal;font-variant-numeric:normal;font-variant-alternates:normal;font-variant-east-asian:normal;font-feature-settings:normal;font-variation-settings:normal;text-indent:0;text-align:start;text-decoration-line:none;text-decoration-style:solid;text-decoration-color:#000;text-transform:none;text-orientation:mixed;white-space:normal;shape-padding:0;shape-margin:0;inline-size:0;isolation:auto;mix-blend-mode:normal;solid-color:#000;solid-opacity:1" d="M40.902 22.809a1.129 1.129 0 00-.807.316L21.873 40.687a1.129 1.129 0 00.472 1.898l24.273 6.969a1.129 1.129 0 001.408-1.356l-6.051-24.53a1.129 1.129 0 00-1.073-.86zm-.65 3.3l5.114 20.736-20.517-5.89 15.403-14.847zM89.453 36.793a1.129 1.129 0 00-.806.316L70.423 54.67a1.129 1.129 0 00.472 1.899l24.274 6.968a1.129 1.129 0 001.408-1.356l-6.05-24.53a1.129 1.129 0 00-1.074-.859zm-.65 3.3l5.114 20.737L73.4 54.94l15.403-14.846zM52.944 71.864a1.129 1.129 0 00-.74.315L33.982 89.742a1.129 1.129 0 00.472 1.898l24.278 6.968a1.129 1.129 0 001.407-1.355l-6.055-24.531a1.129 1.129 0 00-1.14-.858zm-.582 3.3l5.118 20.737-20.522-5.89 15.404-14.846z" overflow="visible"/></g></svg>
